X:1
T:Knowhead, 76.76 D
T:Knowhead, 76.76 D
T:Charles Hutchinson Gabriel (1856-1932)
T:Public Domain Courtesy of the Cyber Hymnal™
C:Charles Hutchinson Gabriel (1856-1932)
Z:Public Domain
Z:Courtesy of the Cyber Hymnal™
%%score ( 1 2 ) ( 3 4 )
L:1/8
Q:1/4=115
M:6/8
K:Ab
V:1 treble 
V:2 treble 
V:3 bass 
V:4 bass 
V:1
 [CE] | [CE]2 [CE] [CF]2 [CG] | [DF]3 [DE]2 [DE] | [EA]2 [EA] [EB]2 [EB] | [Ec]3- [Ec]2 [Ec] | %5
 [Fd]2 [Fd] [DF]2 [Fd] | [Ec]3 [CE]2 [Ec] | [=DB]2 [DF] [DA]2 [B,D] | [B,E]3- [B,E]2 E | %9
 [Ec]2 [Ec] [Ee]2 [EA] | [Ed]3 [EG]2 E | [Ed]2 [DF] ([DG][CA])[EB] | [Ec]3- [Ec]2 [Ec] | %13
 [Ae]2 [Ac] (AB)[=Gc] | [Fd]3 ([DF][EG])[FA] | [Ec]2 [Ec] ([DB][Ec])[DB] | [CA]3- [CA]2 |] %17
V:2
 x | x6 | x6 | x6 | x6 | x6 | x6 | x6 | x5 E | x6 | x5 E | x6 | x6 | x3 _G2 x | x6 | x6 | x5 |] %17
V:3
 [A,,A,] | [A,,A,]2 [A,,A,] [A,,A,]2 [A,,A,] | [B,,G,]3 [B,,G,]2 [B,,G,] | %3
 [C,A,]2 [C,A,] [E,G,]2 [E,G,] | A,3- A,2 A, | [D,A,]2 [D,A,] [D,A,]2 [D,A,] | %6
 [A,,A,]3 [A,,A,]2 [A,,A,] | [B,,F,]2 [B,,B,] [B,,F,]2 [B,,A,] | [E,G,]3- [E,G,]2 [E,G,] | %9
 [A,,A,]2 [A,,A,] [A,,C]2 [C,A,] | [B,,G,]3 [E,B,]2 [E,G,] | [E,G,]2 [E,A,] (B,A,)[E,G,] | %12
 A,3- A,2 A, | [A,C]2 A, A,2 A, | [D,A,]3 [D,A,]2 [D,A,] | [E,A,]2 [E,A,] [E,G,]2 [E,G,] | %16
 [A,,A,]3- [A,,A,]2 |] %17
V:4
 x | x6 | x6 | x6 | A,3- A,2 A, | x6 | x6 | x6 | x6 | x6 | x6 | x3 E,2 x | A,3- A,2 A, | %13
 x2 A, A,2 A, | x6 | x6 | x5 |] %17

